src/22/actions/kt-set-max-upload-speed.svg

<svg xmlns="http://www.w3.org/2000/svg" viewBox="0 0 22 22"><path d="M4 3v2h1V4h12v1h1V3H4zm7 2l-6 6.184.793.816L11 6.633 16.207 12l.793-.816L11 5zm-3 8v6h6v-6h-1v5H9v-5H8z" fill="currentColor" color="#5d656b"/></svg>

<svg xmlns="http://www.w3.org/2000/svg" viewBox="0 0 22 22">
  <defs id="defs3051">
    <style type="text/css" id="current-color-scheme">
      .ColorScheme-Text {
        color:#5d656b;
      }
      </style>
  </defs>
 <path 
     style="fill:currentColor;fill-opacity:1;stroke:none" 
     d="M 4 3 L 4 5 L 5 5 L 5 4 L 17 4 L 17 5 L 18 5 L 18 3 L 17 3 L 5 3 L 4 3 z M 11 5 L 5 11.183594 L 5.7929688 12 L 11 6.6328125 L 16.207031 12 L 17 11.183594 L 11 5 z M 8 13 L 8 19 L 9 19 L 13 19 L 14 19 L 14 13 L 13 13 L 13 18 L 9 18 L 9 13 L 8 13 z "
     class="ColorScheme-Text"
     />
</svg>
